img/icon/tw.svg

<svg width="19" height="16" viewBox="0 0 19 16" fill="none" xmlns="http://www.w3.org/2000/svg">
<path fill-rule="evenodd" clip-rule="evenodd" d="M16.761 2.474C17.5784 1.97738 18.1878 1.20099 18.476 0.289001C17.7117 0.748456 16.8737 1.07223 15.999 1.246C15.6367 0.852847 15.1969 0.539121 14.7072 0.324652C14.2175 0.110184 13.6886 -0.000362849 13.154 8.94735e-07C11.004 8.94735e-07 9.257 1.77 9.257 3.95C9.257 4.26 9.291 4.56 9.358 4.85C6.118 4.684 3.247 3.114 1.322 0.720001C0.975117 1.32575 0.79339 2.01197 0.795 2.71C0.795 4.078 1.483 5.288 2.529 5.996C1.90937 5.97616 1.30363 5.8074 0.763 5.504V5.552C0.763 7.467 2.107 9.064 3.891 9.425C3.31711 9.58507 2.71378 9.60903 2.129 9.495C2.626 11.064 4.065 12.205 5.772 12.236C4.96687 12.8786 4.04178 13.3543 3.05074 13.6354C2.05971 13.9164 1.0226 13.9972 0 13.873C1.77764 15.0309 3.8535 15.6472 5.975 15.647C13.145 15.647 17.066 9.629 17.066 4.409C17.066 4.237 17.063 4.065 17.056 3.897C17.8208 3.33678 18.4792 2.64419 19 1.852C18.29 2.172 17.535 2.382 16.761 2.474Z" fill="#848E9F"/>
</svg>

<svg width="19" height="16" fill="none" xmlns="http://www.w3.org/2000/svg"><path fill-rule="evenodd" clip-rule="evenodd" d="M16.761 2.474A3.949 3.949 0 0 0 18.476.289a7.732 7.732 0 0 1-2.477.957A3.865 3.865 0 0 0 13.154 0c-2.15 0-3.897 1.77-3.897 3.95 0 .31.034.61.101.9-3.24-.166-6.111-1.736-8.036-4.13a3.986 3.986 0 0 0-.527 1.99c0 1.368.688 2.578 1.734 3.286a3.861 3.861 0 0 1-1.766-.492v.048c0 1.915 1.344 3.512 3.128 3.873a3.83 3.83 0 0 1-1.762.07c.497 1.569 1.936 2.71 3.643 2.741A7.754 7.754 0 0 1 0 13.873a10.945 10.945 0 0 0 5.975 1.774c7.17 0 11.091-6.018 11.091-11.238 0-.172-.003-.344-.01-.512A7.945 7.945 0 0 0 19 1.852c-.71.32-1.465.53-2.239.622z" fill="#848E9F"/></svg>
